dist/svgs/unicons/line/image.svg

<svg xmlns="http://www.w3.org/2000/svg" viewBox="0 0 24 24"><path d="M19 4H5a3 3 0 00-3 3v10a3 3 0 003 3h14a3 3 0 003-3V7a3 3 0 00-3-3zM5 18a1 1 0 01-1-1v-2.42l3.3-3.29a1 1 0 011.4 0L15.41 18zm15-1a1 1 0 01-1 1h-.77l-3.81-3.83.88-.88a1 1 0 011.4 0l3.3 3.29zm0-3.24l-1.88-1.87a3.06 3.06 0 00-4.24 0l-.88.88-2.88-2.88a3.06 3.06 0 00-4.24 0L4 11.76V7a1 1 0 011-1h14a1 1 0 011 1z"/></svg>

<svg xmlns="http://www.w3.org/2000/svg" viewBox="0 0 24 24"><path d="M19,4H5A3,3,0,0,0,2,7V17a3,3,0,0,0,3,3H19a3,3,0,0,0,3-3V7A3,3,0,0,0,19,4ZM5,18a1,1,0,0,1-1-1V14.58l3.3-3.29a1,1,0,0,1,1.4,0L15.41,18Zm15-1a1,1,0,0,1-1,1h-.77l-3.81-3.83.88-.88a1,1,0,0,1,1.4,0L20,16.58Zm0-3.24-1.88-1.87a3.06,3.06,0,0,0-4.24,0l-.88.88L10.12,9.89a3.06,3.06,0,0,0-4.24,0L4,11.76V7A1,1,0,0,1,5,6H19a1,1,0,0,1,1,1Z"/></svg>
